icons/podchaser.svg

<svg width="32" height="32" viewBox="0 0 32 32" fill="none" xmlns="http://www.w3.org/2000/svg">
<path d="M3.36667 28.6333C0.913333 26.18 0 22.18 0 16C0 9.82 0.913333 5.82 3.36667 3.36667C5.82 0.913335 9.82 0 16 0C22.18 0 26.18 0.913335 28.6333 3.36667C31.0867 5.82 32 9.82 32 16C32 22.18 31.0867 26.18 28.6333 28.6333C26.18 31.0867 22.18 32 16 32C9.82 32 5.82 31.0867 3.36667 28.6333Z" fill="#283B65"/>
<path d="M16 28.6666C22.9956 28.6666 28.6667 22.9956 28.6667 16C28.6667 9.00437 22.9956 3.33331 16 3.33331C9.00439 3.33331 3.33333 9.00437 3.33333 16C3.33333 22.9956 9.00439 28.6666 16 28.6666Z" fill="#EC1765"/>
<path d="M16 26.8933C22.0162 26.8933 26.8933 22.0162 26.8933 16C26.8933 9.98374 22.0162 5.10663 16 5.10663C9.98377 5.10663 5.10666 9.98374 5.10666 16C5.10666 22.0162 9.98377 26.8933 16 26.8933Z" fill="white"/>
<path d="M16 24.3599C20.4772 24.3599 24.1067 20.7305 24.1067 16.2533C24.1067 11.7761 20.4772 8.14661 16 8.14661C11.5228 8.14661 7.89333 11.7761 7.89333 16.2533C7.89333 20.7305 11.5228 24.3599 16 24.3599Z" fill="#283B65"/>
<path d="M12.4533 16.2533V26.3C10.68 25.6933 9.11999 24.64 7.89333 23.2733V16.2466H12.4533V16.2533Z" fill="#283B65"/>
</svg>

<svg xmlns="http://www.w3.org/2000/svg" width="32" height="32" fill="none" viewBox="0 0 32 32">
  <path fill="#283B65" d="M3.367 28.633C.913 26.18 0 22.18 0 16 0 9.82.913 5.82 3.367 3.367 5.82.913 9.82 0 16 0c6.18 0 10.18.913 12.633 3.367C31.087 5.82 32 9.82 32 16c0 6.18-.913 10.18-3.367 12.633C26.18 31.087 22.18 32 16 32c-6.18 0-10.18-.913-12.633-3.367Z"/>
  <path fill="#EC1765" d="M16 28.667c6.996 0 12.667-5.671 12.667-12.667 0-6.996-5.671-12.667-12.667-12.667C9.004 3.333 3.333 9.004 3.333 16c0 6.996 5.671 12.667 12.667 12.667Z"/>
  <path fill="#fff" d="M16 26.893c6.016 0 10.893-4.877 10.893-10.893 0-6.016-4.877-10.893-10.893-10.893C9.984 5.107 5.107 9.984 5.107 16c0 6.016 4.877 10.893 10.893 10.893Z"/>
  <path fill="#283B65" d="M16 24.36a8.107 8.107 0 1 0 0-16.213 8.107 8.107 0 0 0 0 16.213Z"/>
  <path fill="#283B65" d="M12.453 16.253V26.3a10.848 10.848 0 0 1-4.56-3.027v-7.026h4.56v.006Z"/>
</svg>
